X: 31687
T: Pasacáis Del Xarreru
R: jig
M: 6/8
K: Gmajor
|:AGE|D2B BAB|c3 AGE|D3 AGA|B3 AGE|
D2B BAB|c3 ABc|dcd cBA|1 G3 AGE:|2 G3 G2d||
|:dBd dBd|cBA ABc|DEG ABc|BAG d2B|
d2B dBd|cBA ABc|DFA cBA|1 G3 G2d:|2 G3 AGE||

